X: 10
T: Gavotte t3.2 Des Montagnes Squiban2 orig Am
C: trad Breton, fr Didier Squiban
S: Ker Eon: Suite de Gavottes des Montagnes set by Didier Squiban
F: https://www.youtube.com/watch?v=inQ6gJiGtAs
W:https://www.youtube.com/watch?v=inQ6gJiGtAs
R: Gavotte orig Am
R:Hornpipe
G:Lark23
P: Should be swung...
Q: 1/4=165  "     should be swung"
M: 2/4
L: 1/8
K: Emin
B,EEG GEG2|GEDF E2E2|B,EEG GEG2|GEDF E2E2||
|:B,EEG GEG2|EGB2 BAB2|Bddc Bc B/c/B|A2GB BB A/B/A|G2EA AA G/A/G|EEDF E2E2:|

